X:31
T: canal en octobre 
C: F. Paris
M: 4/4
L: 1/8
R: schottische
K: Cmaj
G cd|:e3f fedc|e3f fedc|ABce d3c|BcAB G2cd|
|e3f fedc|e3f fedc|ABce d3c|1 c4 zG cd:||2 c4 z2gg||
|:g3f fedc|g3f fedc|ABce d3c|BcAB G2gg|
|g3f fedc|g3f fedc|ABce d3c|1 c4 z2gg:||2 c4 zG cd||
